X: 1
T: Hundred Pipers
R: jig, march
O: Scotland 1851
B: the Portland Collection v.1 p.103
Z: 2012 by John Chambers <jc:trillian.mit.edu>
N: (*) G chords give even more "bagpipey" version.
M: 6/8
L: 1/8
K: A
   A2B | "A"c2E EFE | "D"F2A A2f | "A"e2c "Fm"cBA | "Bm"c2B "E7"BAB |
   y3  | "A"c2E EFE | "D"F2A A2f | "A"e2c "E7"BAB | "A"A3 :|
|: c2d | "A"e2e ece | "D"f2a agf | "A"e2c "Fm"cBA | "Bm"c2B "E7"Bcd |
   y4  | "A"e2e ece | "D"f2a agf | "A"e2c "E7"BAB | "A"A3 :|
